T: An Orkney
M: 4/4
L: 1/8
K: Amaj
|: C>D |
E2 c2 c2 B>^A | B2 F2 F4 | E2 G2 G2 (3EFG | F>E^D>F E2 C>=D |
E2 c2 (3cdc (3cB^A | B2 F2 F3 A | G>AB>c d>ef>G | A2 c2 A2 :|
|: c>d |
e2 a2 c2 E>D | C>EA>B c2 B>c | d2 f2 G2 E>G | A>GA>B c2 (3Bcd |
e2 (3aga c2 E>D | C>EA>B c3 A | G>AB>c d>ef>g | a2 A2 A2 :|
